X: 1
M: 3/4
L: 1/8
K: D
|: A,2 || "D"F3 GFE | F3 GFE | "A7"F2 E2 C2 | "D"D4 A,2 | "D"F3 GFE | F3 GFE | D2 F2 A2 |
| "G"d2 c2 B2 | "D"B2 A2 G2 | "A7"A3 BAG | "D"F3 GFE | F3 GFE | "A7"F2 E2 C2 | "D"D4 :|
|: F2 || "G"G2 GG GG | "A7"G2 F2 E2 | "D"F3 EDF | A2 F2 D2 | "Em"E3 DCD | "A7"E3 DCB, | A,2 F2 G2 |
| "D"A4 B2 | "G"G2 GG GG | "A7"G2 F2 E2 | "D"F3 EDF | A2 F2 D2 | "Em"E3 DCD | "A7"E3 DCB, | A,2 B,2 C2 |
| "D"D2 F2 G2 | "D"A2 d2 c2 | "G"B2 A2 G2 | "A7"A3 BAG | "D"F3 GFE | F3 GFE | "A7"F2 E2 C2 | "D"D4 :|
